assets/icons/24px/stroke/return-down-24px.svg

<svg width="24" height="24" viewBox="0 0 24 24" fill="none" xmlns="http://www.w3.org/2000/svg">
<g clip-path="url(#clip0_878_24655)">
<g clip-path="url(#clip1_878_24655)">
<path fill-rule="evenodd" clip-rule="evenodd" d="M6.06431 4.9387C6.00213 5.40121 6 6.02892 6 7L6 9.5C6 10.0523 5.55229 10.5 5 10.5C4.44772 10.5 4 10.0523 4 9.5L4 6.93417C3.99995 6.04768 3.99991 5.28387 4.08214 4.67221C4.17028 4.01669 4.36902 3.38834 4.87868 2.87868C5.38835 2.36902 6.0167 2.17027 6.67221 2.08214C7.28388 1.9999 8.0477 1.99995 8.9342 2L9.06581 2C9.95231 1.99995 10.7161 1.9999 11.3278 2.08214C11.9833 2.17027 12.6117 2.36902 13.1213 2.87868C13.631 3.38834 13.8297 4.01669 13.9179 4.67221C14.0001 5.28387 14.0001 6.04768 14 6.93417L14 19.365L18.3598 15.7318C18.7841 15.3782 19.4147 15.4355 19.7682 15.8598C20.1218 16.2841 20.0645 16.9147 19.6402 17.2682L13.6402 22.2682C13.2693 22.5773 12.7307 22.5773 12.3598 22.2682L6.35982 17.2682C5.93554 16.9147 5.87822 16.2841 6.23178 15.8598C6.58535 15.4355 7.21591 15.3782 7.64019 15.7318L12 19.365L12 7C12 6.02892 11.9979 5.40121 11.9357 4.9387C11.8774 4.50496 11.7832 4.36902 11.7071 4.29289C11.631 4.21677 11.495 4.12262 11.0613 4.06431C10.5988 4.00212 9.97108 4 9 4C8.02893 4 7.40121 4.00212 6.93871 4.06431C6.50497 4.12262 6.36902 4.21677 6.2929 4.29289C6.21677 4.36902 6.12262 4.50496 6.06431 4.9387Z" fill="white"/>
</g>
</g>
<defs>
<clipPath id="clip0_878_24655">
<rect width="24" height="24" fill="white"/>
</clipPath>
<clipPath id="clip1_878_24655">
<rect width="24" height="24" fill="white" transform="translate(0 24) rotate(-90)"/>
</clipPath>
</defs>
</svg>

<svg width="24" height="24" fill="none" xmlns="http://www.w3.org/2000/svg"><g clip-path="url(#clip0_878_24655)"><g clip-path="url(#clip1_878_24655)"><path fill-rule="evenodd" clip-rule="evenodd" d="M6.064 4.939C6.002 5.4 6 6.029 6 7v2.5a1 1 0 1 1-2 0V6.934c0-.886 0-1.65.082-2.262.088-.655.287-1.284.797-1.793.51-.51 1.138-.709 1.793-.797C7.284 2 8.048 2 8.934 2h.132c.886 0 1.65 0 2.262.082.655.088 1.284.287 1.793.797.51.51.709 1.138.797 1.793C14 5.284 14 6.048 14 6.934v12.431l4.36-3.633a1 1 0 1 1 1.28 1.536l-6 5a1 1 0 0 1-1.28 0l-6-5a1 1 0 1 1 1.28-1.536L12 19.365V7c0-.971-.002-1.599-.064-2.061-.059-.434-.153-.57-.229-.646-.076-.076-.212-.17-.646-.229C10.6 4.002 9.971 4 9 4c-.971 0-1.599.002-2.061.064-.434.059-.57.153-.646.229-.076.076-.17.212-.229.646z" fill="#fff"/></g></g><defs><clipPath id="clip0_878_24655"><path fill="#fff" d="M0 0H24V24H0z"/></clipPath><clipPath id="clip1_878_24655"><path fill="#fff" transform="rotate(-90 12 12)" d="M0 0H24V24H0z"/></clipPath></defs></svg>
